src/assets/Ample/img/Ample_color-palette-teal.svg

<svg width="641" height="795" viewBox="0 0 641 795" fill="none" xmlns="http://www.w3.org/2000/svg">
<rect width="640.47" height="794.61" rx="12.4476" fill="#00A8AD"/>
<path d="M31.9983 45.6734V42.5602H49.2676V45.6734H42.5713V63.1189H38.7533V45.6734H31.9983ZM56.6582 63.5888C51.9003 63.5888 48.7284 60.8281 48.7284 55.4828C48.7284 50.5781 51.8122 47.4943 56.4819 47.4943C60.8286 47.4943 64.0005 50.6075 64.0005 55.0129C64.0005 55.4241 63.9712 55.8059 63.9124 56.217H52.194C52.2527 59.154 54.103 60.7987 56.6582 60.7987C58.7728 60.7987 60.2119 59.5358 60.623 57.8324H63.8537C63.3838 61.5623 60.0356 63.5888 56.6582 63.5888ZM52.194 54.1905H60.4762C60.3293 51.8116 58.8315 50.2844 56.4232 50.2844C54.0736 50.2844 52.3702 51.6648 52.194 54.1905ZM71.847 63.5888C68.9101 63.5888 66.7367 62.1203 66.7367 59.389C66.7367 56.687 68.6457 55.0129 72.3169 55.0129H74.1672C76.928 55.0129 78.0734 54.3961 78.0734 52.8395C78.0734 51.6941 77.1923 50.2844 74.4903 50.2844C72.2876 50.2844 70.7604 51.4004 70.4667 53.4563H66.8836C67.2654 49.7264 70.1142 47.4943 74.5197 47.4943C78.9545 47.4943 81.5977 49.4914 81.5977 52.9277V63.1189H78.1321L78.0734 59.3009H77.9265C77.2804 61.7973 74.9015 63.5888 71.847 63.5888ZM70.4079 59.0659C70.4079 60.3582 71.289 61.1218 73.1099 61.1218C76.0762 61.1218 78.0734 58.7722 78.0734 56.452V54.9542H77.9265C77.6328 56.3639 76.4287 57.01 74.0791 57.01H72.8162C71.2596 57.01 70.4079 57.7736 70.4079 59.0659ZM85.3988 42.5602H88.9525V63.1189H85.3988V42.5602Z" fill="black"/>
<path d="M33.1762 101.11V99.2145H35.7118L36.4884 95.5139H34.227V93.5951H36.8768L37.722 89.392H39.8235L39.0926 93.5951H42.8845L43.7297 89.392H45.8312L45.1003 93.5951H47.2703V95.5139H44.6891L43.9353 99.2145H46.2424V101.11H43.5469L42.6789 105.382H40.623L41.3312 101.11H37.5392L36.6712 105.382H34.6153L35.3235 101.11H33.1762ZM37.9276 99.2145H41.7195L42.4962 95.5139H38.7042L37.9276 99.2145ZM56.1033 105.725C51.9458 105.725 49.8443 102.801 49.8443 97.387C49.8443 91.9732 51.9687 89.0265 56.1033 89.0265C60.2378 89.0265 62.3394 91.9732 62.3394 97.387C62.3394 102.824 60.215 105.725 56.1033 105.725ZM52.4027 97.387C52.4027 101.567 53.4992 103.669 56.1033 103.669C58.6617 103.669 59.8038 101.567 59.8038 97.387C59.8038 93.1839 58.6617 91.0824 56.1033 91.0824C53.4992 91.0824 52.4027 93.1839 52.4027 97.387ZM71.1832 105.725C67.0258 105.725 64.9242 102.801 64.9242 97.387C64.9242 91.9732 67.0486 89.0265 71.1832 89.0265C75.3178 89.0265 77.4193 91.9732 77.4193 97.387C77.4193 102.824 75.2949 105.725 71.1832 105.725ZM67.4826 97.387C67.4826 101.567 68.5791 103.669 71.1832 103.669C73.7416 103.669 74.8838 101.567 74.8838 97.387C74.8838 93.1839 73.7416 91.0824 71.1832 91.0824C68.5791 91.0824 67.4826 93.1839 67.4826 97.387ZM80.8033 105.382H78.2677L84.6409 89.392H87.5877L94.0979 105.382H91.5167L89.8263 101.042H82.4709L80.8033 105.382ZM83.2704 98.986H89.0039L87.839 95.9936C87.2679 94.5317 86.7196 93.0697 86.1943 91.6078H86.0344C85.509 93.1154 84.9607 94.5773 84.3897 96.085L83.2704 98.986ZM101.375 105.748C97.789 105.748 95.322 103.92 95.322 100.882C95.322 98.552 96.8753 97.3185 98.6114 96.8616V96.7246C97.1266 96.4733 95.9616 95.0342 95.9616 93.321C95.9616 90.6484 98.2459 89.0265 101.375 89.0265C104.505 89.0265 106.766 90.6484 106.766 93.321C106.766 95.0114 105.601 96.4733 104.117 96.7246V96.8616C105.853 97.3185 107.429 98.552 107.429 100.882C107.429 103.92 104.962 105.748 101.375 105.748ZM97.8119 100.768C97.8119 102.709 99.2967 103.715 101.375 103.715C103.454 103.715 104.939 102.709 104.939 100.768C104.939 98.7576 103.454 97.8439 101.375 97.8439C99.2967 97.8439 97.8119 98.7805 97.8119 100.768ZM98.2916 93.5037C98.2916 95.1941 99.5936 95.9936 101.375 95.9936C103.18 95.9936 104.459 95.1713 104.459 93.5037C104.459 91.859 103.134 91.0367 101.375 91.0367C99.5708 91.0367 98.2916 91.859 98.2916 93.5037ZM111.164 105.382H108.628L115.002 89.392H117.948L124.459 105.382H121.877L120.187 101.042H112.832L111.164 105.382ZM113.631 98.986H119.365L118.2 95.9936C117.629 94.5317 117.08 93.0697 116.555 91.6078H116.395C115.87 93.1154 115.321 94.5773 114.75 96.085L113.631 98.986ZM132.01 103.303C135.482 103.303 137.56 101.43 137.56 97.387C137.56 93.2981 135.459 91.4707 132.01 91.4707H128.834V103.303H132.01ZM126.39 105.382V89.392H132.032C136.852 89.392 140.073 92.0646 140.073 97.387C140.073 102.869 136.807 105.382 132.032 105.382H126.39Z" fill="black" fill-opacity="0.5"/>
</svg>

<?xml version="1.0" encoding="UTF-8"?>
<svg id="Layer_1" data-name="Layer 1" xmlns="http://www.w3.org/2000/svg" viewBox="0 0 640.47 800">
  <defs>
    <style>
      .cls-1 {
        fill: #00a8ad;
      }
    </style>
  </defs>
  <rect class="cls-1" width="640.47" height="800" rx="12.45" ry="12.45"/>
  <path d="M32,45.67v-3.11h17.27v3.11h-6.7v17.45h-3.82v-17.45h-6.75ZM56.66,63.59c-4.76,0-7.93-2.76-7.93-8.11,0-4.9,3.08-7.99,7.75-7.99,4.35,0,7.52,3.11,7.52,7.52,0,.41-.03.79-.09,1.2h-11.72c.06,2.94,1.91,4.58,4.46,4.58,2.11,0,3.55-1.26,3.96-2.97h3.23c-.47,3.73-3.82,5.76-7.2,5.76ZM52.19,54.19h8.28c-.15-2.38-1.64-3.91-4.05-3.91s-4.05,1.38-4.23,3.91ZM71.85,63.59c-2.94,0-5.11-1.47-5.11-4.2s1.91-4.38,5.58-4.38h1.85c2.76,0,3.91-.62,3.91-2.17,0-1.15-.88-2.56-3.58-2.56-2.2,0-3.73,1.12-4.02,3.17h-3.58c.38-3.73,3.23-5.96,7.64-5.96s7.08,2,7.08,5.43v10.19h-3.47l-.06-3.82h-.15c-.65,2.5-3.03,4.29-6.08,4.29ZM70.41,59.07c0,1.29.88,2.06,2.7,2.06,2.97,0,4.96-2.35,4.96-4.67v-1.5h-.15c-.29,1.41-1.5,2.06-3.85,2.06h-1.26c-1.56,0-2.41.76-2.41,2.06ZM85.4,42.56h3.55v20.56h-3.55v-20.56Z"/>
  <path d="M33.18,101.11v-1.9h2.54l.78-3.7h-2.26v-1.92h2.65l.85-4.2h2.1l-.73,4.2h3.79l.85-4.2h2.1l-.73,4.2h2.17v1.92h-2.58l-.75,3.7h2.31v1.9h-2.7l-.87,4.27h-2.06l.71-4.27h-3.79l-.87,4.27h-2.06l.71-4.27h-2.15ZM37.93,99.21h3.79l.78-3.7h-3.79l-.78,3.7ZM56.1,105.72c-4.16,0-6.26-2.92-6.26-8.34s2.12-8.36,6.26-8.36,6.24,2.95,6.24,8.36-2.12,8.34-6.24,8.34ZM52.4,97.39c0,4.18,1.1,6.28,3.7,6.28s3.7-2.1,3.7-6.28-1.14-6.3-3.7-6.3-3.7,2.1-3.7,6.3ZM71.18,105.72c-4.16,0-6.26-2.92-6.26-8.34s2.12-8.36,6.26-8.36,6.24,2.95,6.24,8.36-2.12,8.34-6.24,8.34ZM67.48,97.39c0,4.18,1.1,6.28,3.7,6.28s3.7-2.1,3.7-6.28-1.14-6.3-3.7-6.3-3.7,2.1-3.7,6.3ZM80.8,105.38h-2.54l6.37-15.99h2.95l6.51,15.99h-2.58l-1.69-4.34h-7.36l-1.67,4.34ZM83.27,98.99h5.73l-1.16-2.99c-.57-1.46-1.12-2.92-1.64-4.39h-.16c-.53,1.51-1.07,2.97-1.64,4.48l-1.12,2.9ZM101.38,105.75c-3.59,0-6.05-1.83-6.05-4.87,0-2.33,1.55-3.56,3.29-4.02v-.14c-1.48-.25-2.65-1.69-2.65-3.4,0-2.67,2.28-4.29,5.41-4.29s5.39,1.62,5.39,4.29c0,1.69-1.17,3.15-2.65,3.4v.14c1.74.46,3.31,1.69,3.31,4.02,0,3.04-2.47,4.87-6.05,4.87ZM97.81,100.77c0,1.94,1.48,2.95,3.56,2.95s3.56-1.01,3.56-2.95-1.49-2.92-3.56-2.92-3.56.94-3.56,2.92ZM98.29,93.5c0,1.69,1.3,2.49,3.08,2.49s3.08-.82,3.08-2.49-1.32-2.47-3.08-2.47-3.08.82-3.08,2.47ZM111.16,105.38h-2.54l6.37-15.99h2.95l6.51,15.99h-2.58l-1.69-4.34h-7.35l-1.67,4.34ZM113.63,98.99h5.73l-1.17-2.99c-.57-1.46-1.12-2.92-1.64-4.39h-.16c-.52,1.51-1.07,2.97-1.64,4.48l-1.12,2.9ZM132.01,103.3c3.47,0,5.55-1.87,5.55-5.92s-2.1-5.92-5.55-5.92h-3.18v11.83h3.18ZM126.39,105.38v-15.99h5.64c4.82,0,8.04,2.67,8.04,8s-3.27,8-8.04,8h-5.64Z"/>
</svg>
